picto/dogs-prohibited.svg

<svg class="color-immutable" width="24" height="24" viewBox="0 0 24 24" fill="none" xmlns="http://www.w3.org/2000/svg"><path d="M0 22.5V1.5C0 0.675 0.675 0 1.5 0H22.5C23.325 0 24 0.675 24 1.5V22.5C24 23.325 23.325 24 22.5 24H1.5C0.675 24 0 23.325 0 22.5Z" fill="#2D327D"/><path d="M7.395 17.546C7.164 17.816 6.886 18.044 6.573 18.217L8.284 20.663C8.452 20.902 8.782 20.961 9.021 20.793C9.26 20.625 9.318 20.295 9.151 20.056L7.395 17.546Z" fill="white"/><path d="M13.075 16.379L11.16 20.137C11.027 20.397 11.131 20.716 11.391 20.849C11.651 20.982 11.97 20.878 12.103 20.618L14.263 16.379H13.075Z" fill="white"/><path d="M16.483 13.484L16.905 12.755L14.444 10.281L13.909 10.802C13.743 10.963 13.419 11.095 13.188 11.095H12.172L3.70801 2.631L2.64801 3.692L10.05 11.094H5.17301C4.35501 11.094 3.69101 10.431 3.69101 9.612C3.69101 8.794 4.35401 8.13 5.17301 8.13C5.39001 8.13 5.56501 7.954 5.56501 7.738C5.56501 7.521 5.38901 7.346 5.17301 7.346C3.92101 7.346 2.90701 8.361 2.90701 9.613C2.90701 10.865 3.92201 11.879 5.17301 11.879V15.639L3.62001 17.456V20.446C3.62001 20.738 3.85701 20.975 4.14901 20.975C4.44101 20.975 4.67801 20.738 4.67801 20.446L4.67701 18.243C4.67701 18.078 4.81201 17.943 4.97701 17.943C4.97701 17.943 4.98501 17.943 5.14501 17.943C6.38301 17.943 7.38801 16.954 7.41801 15.723H14.679L14.963 16.007L14.962 20.43C14.961 20.73 15.197 20.975 15.489 20.976C15.781 20.977 16.019 20.735 16.02 20.434L16.021 17.066L19.99 21.035L21.051 19.974L16.483 15.406V13.484Z" fill="white"/><path d="M20.828 8.427H19.776L19.501 8.055C19.501 8.055 19.454 7.991 19.396 7.913C19.338 7.835 19.213 7.771 19.118 7.771C19.118 7.771 19.118 7.771 18.873 7.771H17.265C17.132 7.771 16.943 7.849 16.845 7.945C16.746 8.041 15.007 9.732 15.007 9.732L17.312 12.049L17.934 10.975C18 10.861 18.162 10.767 18.294 10.767H20.171L21.067 9.871V8.667C21.068 8.535 20.96 8.427 20.828 8.427Z" fill="white"/><path d="M3.70801 2.631L2.64801 3.692L19.99 21.034L21.05 19.973L3.70801 2.631Z" fill="#EB0000"/></svg>

<svg class="color-immutable" width="24" height="24" viewBox="0 0 24 24" fill="none" xmlns="http://www.w3.org/2000/svg"><g clip-path="url(#a)"><path d="M0 22.5v-21C0 .675.675 0 1.5 0h21c.825 0 1.5.675 1.5 1.5v21c0 .825-.675 1.5-1.5 1.5h-21C.675 24 0 23.325 0 22.5Z" fill="#2D327D"/><path d="M7.395 17.546a2.98 2.98 0 0 1-.822.671l1.711 2.446a.53.53 0 0 0 .867-.607l-1.756-2.51ZM13.075 16.379l-1.915 3.758a.53.53 0 0 0 .943.481l2.16-4.239h-1.188Z" fill="#fff"/><path d="m16.483 13.484.422-.729-2.461-2.474-.535.521c-.166.161-.49.293-.721.293h-1.016L3.708 2.631l-1.06 1.061 7.402 7.402H5.173a1.482 1.482 0 1 1 0-2.964.392.392 0 1 0 0-.784 2.266 2.266 0 0 0 0 4.533v3.76L3.62 17.456v2.99a.53.53 0 0 0 1.058 0l-.001-2.203a.3.3 0 0 1 .3-.3h.168a2.274 2.274 0 0 0 2.273-2.22h7.261l.284.284-.001 4.423c-.001.3.235.545.527.546a.536.536 0 0 0 .531-.542l.001-3.368 3.969 3.969 1.061-1.061-4.568-4.568v-1.922ZM20.828 8.427h-1.052l-.275-.372-.105-.142a.393.393 0 0 0-.278-.142H17.265a.694.694 0 0 0-.42.174l-1.838 1.787 2.305 2.317.622-1.074a.462.462 0 0 1 .36-.208h1.877l.896-.896V8.667a.24.24 0 0 0-.239-.24Z" fill="#fff"/><path d="m3.708 2.631-1.06 1.061L19.99 21.034l1.06-1.061L3.708 2.631Z" fill="#EB0000"/></g><defs><clipPath id="a"><path fill="#fff" d="M0 0h24v24H0z"/></clipPath></defs></svg>
